X:1
T: The Nut
C:
R:Jig
Q:180
K:Bb
M:6/8
L:1/16
F2|B2c2B2 B2e2d2|d2c2B2 B4g2|g2f2e2 d2c2B2|d2c2c2 c4F2|B2c2B2 B2e2d2|d2g2f2 f2b2a2|g4B2 A2B2c2|c2B2B2 B4AB|
c2d2c2 c2a2f2|=e2c2d2 c4c2|c2d2c2 c2A2F2|A2G2G2 G2A2B2|c2d2c2 c2a2f2|=e2c2d2 c4c2|d2=e2f2 g2f2e2|f2g2f2 e2d2c2|
B2c2B2 B2e2d2|d2c2B2 B4g2|g2f2e2 d2c2B2|d2c2c2 c4F2|B2c2B2 B2e2d2|d2g2f2 f2b2a2|g4B2 A2B2c2|c2B2B2 B4||
